X:478
T: Die traurige Braut (187b), S. 408
N: T0366
O: Luxemburg
S: Singendes Volk, Esch-Alzette, 1937 posth.]
N: Esch-Alzette, fff Michel Rauchs, 1915;
N: (187c)- Rodershausen, fff Lutgen, 1930,
N: mitgeteilt, hhh Josef Bour (Lehrer)
R: Hochzeits-, Ehestandslied]
M: 4/4
L: 1/8
K: D
DF | A2ABA2AB | A2AGF2z2 |
A2AGF2FA | G2G2E2A2 | F2z4
DF | A2A2A2BA | A2G2G2
AG | FFFFA2GF | E2z4
D2 | D2B2B2
dB | BAAAA2G2 | F2z4

@@@ Tune index: 8532
